X:1
T:I'm Nobody's Baby
C:1921 - B. Davis
Z:www.realbook.site
L:1/4
M:4/4
I:linebreak $
K:F
V:1 treble nm=" " snm=" "
V:1
"C7b9" _D2 ||"F6" C4 | D2 A2 |"G7" A4 | G4 |$"C7" D4 | E2 d2 |"F6" c4- | c A B =B |$"D7" c2 D2 | %10
 ^F2 A2 |"Gm7" c _B A B- | B4 |$"G7" A G d A- | A3 G |"C7" F E G D- | D3"C7b9" _D ||$"F6" C4 | %18
 D2 A2 |"G7" A4 | G4 |$"C7" D4 | E2 d2 |"A7" ^c4- | c A =B ^c |$"D7" d2 =c2 | _B2 A2 | %27
"Gm7" B c B A | G A B c |$"C7" d B G D- | D2 A2 |"F6" F4- | F z z2 |] %33

